**harm	**harte	**timestamp	**phrase	**leadinstrument	**kern
*M4/4	*M4/4	*	*	*	*
*C:	*C:	*	*	*	*C:
1r;	N	0	.	r	1r;
=1	=1	=1	=1	=1	=1
*>A_intro	*>A_intro	*>A_intro	*>A_intro	*>A_intro	*>A_intro
1I	C:maj	6.645	newline	r	1C 1e 1g
=2	=2	=2	=2	=2	=2
1IVc	F:maj/5	8.3	.	r	1f 1a 1C
=3	=3	=3	=3	=3	=3
1I	C:maj	9.955	.	r	1C 1e 1g
=4	=4	=4	=4	=4	=4
*>B_verse	*>B_verse	*>B_verse	*>B_verse	*>B_verse	*>B_verse
1I	C:maj	11.61	newline	r	1C 1e 1g
=5	=5	=5	=5	=5	=5
1Im7	C:7	13.264	.	r	1C 1e 1g 1b
=6	=6	=6	=6	=6	=6
1I	C:maj	14.919	.	r	1C 1e 1g
=7	=7	=7	=7	=7	=7
1Im7	C:7	16.573	.	r	1C 1e 1g 1b
=8	=8	=8	=8	=8	=8
1IVm7	F:7	18.227	newline	r	1F 1a 1cc 1ee
=9	=9	=9	=9	=9	=9
1IVm7	F:7	19.876	.	r	1F 1a 1cc 1ee
=10	=10	=10	=10	=10	=10
1I	C:maj	21.525	.	r	1C 1e 1g
=11	=11	=11	=11	=11	=11
1Im7	C:7	23.173	.	r	1C 1e 1g 1b
=12	=12	=12	=12	=12	=12
1I	C:maj	24.822	newline	r	1C 1e 1g
=13	=13	=13	=13	=13	=13
1Im7	C:7	26.466	.	r	1C 1e 1g 1b
=14	=14	=14	=14	=14	=14
1Im7	C:7	28.11	.	r	1C 1e 1g 1b
=15	=15	=15	=15	=15	=15
1Im7	C:7	29.754	.	r	1C 1e 1g 1b
=16	=16	=16	=16	=16	=16
1vi	A:min	31.397	newline	r	1A 1cc 1ee
=17	=17	=17	=17	=17	=17
1V	G:maj	33.033	.	r	1G 1b 1dd
=18	=18	=18	=18	=18	=18
1I	C:maj	34.669	.	r	1C 1e 1g
=19	=19	=19	=19	=19	=19
1I	C:maj	36.305	.	r	1C 1e 1g
=20	=20	=20	=20	=20	=20
*>B_verse	*>B_verse	*>B_verse	*>B_verse	*>B_verse	*>B_verse
1I	C:maj	37.941	newline	r	1C 1e 1g
=21	=21	=21	=21	=21	=21
1Im7	C:7	39.593	.	r	1C 1e 1g 1b
=22	=22	=22	=22	=22	=22
1I	C:maj	41.245	.	r	1C 1e 1g
=23	=23	=23	=23	=23	=23
1Im7	C:7	42.897	.	r	1C 1e 1g 1b
=24	=24	=24	=24	=24	=24
1IVm7	F:7	44.549	newline	r	1F 1a 1cc 1ee
=25	=25	=25	=25	=25	=25
1IVm7	F:7	46.185	.	r	1F 1a 1cc 1ee
=26	=26	=26	=26	=26	=26
1I	C:maj	47.82	.	r	1C 1e 1g
=27	=27	=27	=27	=27	=27
1Im7	C:7	49.455	.	r	1C 1e 1g 1b
=28	=28	=28	=28	=28	=28
1I	C:maj	51.09	newline	r	1C 1e 1g
=29	=29	=29	=29	=29	=29
1Im7	C:7	52.735	.	r	1C 1e 1g 1b
=30	=30	=30	=30	=30	=30
1I	C:maj	54.38	.	r	1C 1e 1g
=31	=31	=31	=31	=31	=31
1Im7	C:7	56.025	.	r	1C 1e 1g 1b
=32	=32	=32	=32	=32	=32
1vi	A:min	57.67	newline	r	1A 1cc 1ee
=33	=33	=33	=33	=33	=33
1V	G:maj	59.306	.	r	1G 1b 1dd
=34	=34	=34	=34	=34	=34
1I	C:maj	60.942	.	r	1C 1e 1g
=35	=35	=35	=35	=35	=35
1Im7	C:7	62.577	.	r	1C 1e 1g 1b
=36	=36	=36	=36	=36	=36
*>C_solo	*>C_solo	*>C_solo	*>C_solo	*>C_solo	*>C_solo
1I	C:maj	64.213	newline	guitar	1C 1e 1g
=37	=37	=37	=37	=37	=37
1IVm7	F:7	65.867	.	guitar	1F 1a 1cc 1ee
=38	=38	=38	=38	=38	=38
1I	C:maj	67.52	.	guitar	1C 1e 1g
=39	=39	=39	=39	=39	=39
1I	C:maj	69.173	.	guitar	1C 1e 1g
=40	=40	=40	=40	=40	=40
1I	C:maj	70.827	newline	guitar	1C 1e 1g
=41	=41	=41	=41	=41	=41
1IVm7	F:7	72.457	.	guitar	1F 1a 1cc 1ee
=42	=42	=42	=42	=42	=42
1I	C:maj	74.086	.	guitar	1C 1e 1g
=43	=43	=43	=43	=43	=43
1I	C:maj	75.716	.	guitar	1C 1e 1g
=44	=44	=44	=44	=44	=44
1I	C:maj	77.346	newline	guitar	1C 1e 1g
=45	=45	=45	=45	=45	=45
1IVm7	F:7	78.994	.	guitar	1F 1a 1cc 1ee
=46	=46	=46	=46	=46	=46
1I	C:maj	80.643	.	guitar	1C 1e 1g
=47	=47	=47	=47	=47	=47
1I	C:maj	82.292	.	guitar	1C 1e 1g
=48	=48	=48	=48	=48	=48
1I	C:maj	83.94	newline	guitar	1C 1e 1g
=49	=49	=49	=49	=49	=49
1IVm7	F:7	85.584	.	guitar	1F 1a 1cc 1ee
=50	=50	=50	=50	=50	=50
1I	C:maj	87.229	.	guitar	1C 1e 1g
=51	=51	=51	=51	=51	=51
1I	C:maj	88.873	.	guitar	1C 1e 1g
=52	=52	=52	=52	=52	=52
*>C_chorus	*>C_chorus	*>C_chorus	*>C_chorus	*>C_chorus	*>C_chorus
1I	C:maj	90.518	newline	voice	1C 1e 1g
=53	=53	=53	=53	=53	=53
1IVm7	F:7	92.165	.	voice	1F 1a 1cc 1ee
=54	=54	=54	=54	=54	=54
1I	C:maj	93.812	.	voice	1C 1e 1g
=55	=55	=55	=55	=55	=55
1I	C:maj	95.459	.	voice	1C 1e 1g
=56	=56	=56	=56	=56	=56
1I	C:maj	97.106	newline	voice	1C 1e 1g
=57	=57	=57	=57	=57	=57
1IVm7	F:7	98.75	.	voice	1F 1a 1cc 1ee
=58	=58	=58	=58	=58	=58
1I	C:maj	100.393	.	voice	1C 1e 1g
=59	=59	=59	=59	=59	=59
1I	C:maj	102.036	.	voice	1C 1e 1g
=60	=60	=60	=60	=60	=60
1I	C:maj	103.68	newline	voice	1C 1e 1g
=61	=61	=61	=61	=61	=61
1IVm7	F:7	105.317	.	voice	1F 1a 1cc 1ee
=62	=62	=62	=62	=62	=62
1I	C:maj	106.954	.	voice	1C 1e 1g
=63	=63	=63	=63	=63	=63
1I	C:maj	108.591	.	voice	1C 1e 1g
=64	=64	=64	=64	=64	=64
1I	C:maj	110.229	newline	voice	1C 1e 1g
=65	=65	=65	=65	=65	=65
1IVm7	F:7	111.859	.	voice	1F 1a 1cc 1ee
=66	=66	=66	=66	=66	=66
1I	C:maj	113.49	.	voice	1C 1e 1g
=67	=67	=67	=67	=67	=67
1I	C:maj	115.12	.	voice	1C 1e 1g
=68	=68	=68	=68	=68	=68
*>D_outro	*>D_outro	*>D_outro	*>D_outro	*>D_outro	*>D_outro
1I	C:maj	116.75	newline	trumpet	1C 1e 1g
=69	=69	=69	=69	=69	=69
1V	G:maj	118.413	.	trumpet	1G 1b 1dd
=70	=70	=70	=70	=70	=70
1IVm7	F:7	120.076	.	trumpet	1F 1a 1cc 1ee
=71	=71	=71	=71	=71	=71
2Ic	C:maj/5	121.739	.	trumpet	2c 2e 2G
2V	G:maj	122.57	.	trumpet	2G 2b 2dd
=72	=72	=72	=72	=72	=72
1I	C:maj	123.401	newline	trumpet	1C 1e 1g
=73	=73	=73	=73	=73	=73
1V	G:maj	125.048	.	trumpet	1G 1b 1dd
=74	=74	=74	=74	=74	=74
1IVm7	F:7	126.695	.	trumpet	1F 1a 1cc 1ee
=75	=75	=75	=75	=75	=75
2Ic	C:maj/5	128.342	.	trumpet	2c 2e 2G
2V	G:maj	129.165	.	trumpet	2G 2b 2dd
=76	=76	=76	=76	=76	=76
1I	C:maj	129.989	newline	trumpet	1C 1e 1g
=77	=77	=77	=77	=77	=77
1V	G:maj	131.629	.	trumpet	1G 1b 1dd
=78	=78	=78	=78	=78	=78
1IVm7	F:7	133.268	.	trumpet	1F 1a 1cc 1ee
=79	=79	=79	=79	=79	=79
2Ic	C:maj/5	134.908	.	trumpet	2c 2e 2G
2V	G:maj	135.728	.	trumpet	2G 2b 2dd
=80	=80	=80	=80	=80	=80
*>_fadeout	*>_fadeout	*>_fadeout	*>_fadeout	*>_fadeout	*>_fadeout
1I	C:maj	136.548	newline	trumpet	1C 1e 1g
=81	=81	=81	=81	=81	=81
1V	G:maj	137.398	.	trumpet	1G 1b 1dd
=82	=82	=82	=82	=82	=82
1IVm7	F:7	138.247	.	trumpet	1F 1a 1cc 1ee
=83	=83	=83	=83	=83	=83
2Ic	C:maj/5	139.097	.	trumpet	2c 2e 2G
2V	G:maj	139.522	.	trumpet	2G 2b 2dd
1r;	N	139.947	.	r	1r;
1r;	N	145.58	.	r	1r;
*-	*-	*-	*-	*-	*-
!!!OTL: I Found A True Love
!!!COC: Wilson Pickett
!!!BillboardChartDate: 1968/10/05
!!!BillboardPeak: 42
!!!BillboardWeeksOnChart: 7
!!!SampleTargetRank: 50
!!!SampleActualRank: 49
!!!SampleID#: 0943
!!!RDF**harmony: **recip + pitch class of root + harmonic quality
!!!RDF**harte: Chris Harte's syntax, used by MIREX
!!!RDF**phrase: newline = linebreak in original McGill transcription
!!!RDF**timestamp: McGill audio timestamp in seconds
!!!RDF**leadinstrument: original McGill primary instrumentation annotation
!!!RDT: 2017/01/12/
!!!ENC: Nathaniel Condit-Schultz
!!!EST: Awating manual error checking and editing.
